client/gui/svg/flags/kz.svg

<svg xmlns="http://www.w3.org/2000/svg" viewBox="0 0 32 16">
  <g fill="none" fill-rule="evenodd">
    <rect width="32" height="16" fill="#00AFCA"/>
    <rect width="2" height="14" x="1" y="1" fill="#FEC50C"/>
    <path fill="#FEC50C" fill-rule="nonzero" d="M22.0435,7.752875 C22.0435,8.33559583 21.5697517,8.81530778 20.9990723,8.8766795 L20.8754375,8.8833125 L20.9130625,8.8833125 C20.9130625,9.50765625 20.4069687,10.01375 19.782625,10.01375 C19.782625,10.5964708 19.3417611,11.0761828 18.7753647,11.1375545 L18.6521875,11.1441875 L16.3913125,11.1441875 C15.7669687,11.1441875 15.260875,10.6380938 15.260875,10.01375 C14.6781542,10.01375 14.1984422,9.57288611 14.1370705,9.00648967 L14.1304375,8.8833125 L14.1680625,8.8833125 C13.5854,8.8833125 13.0728619,8.44244861 13.0071131,7.87605217 L13,7.752875 L14.7620261,7.75357366 C15.2899578,8.73661124 16.3277896,9.40503125 17.52175,9.40503125 C18.7156888,9.40503125 19.7535289,8.73661124 20.2814677,7.75357366 L22.0435,7.752875 Z M18.26075,4 L18.3951562,5.07175 L19.456125,4.8688125 L18.9358438,5.8150625 L19.9128438,6.27459375 L18.9358125,6.7341875 L19.4560938,7.6804375 L18.3951562,7.47746875 L18.2607188,8.54921875 L17.52175,7.7609375 L16.78275,8.54921875 L16.6483438,7.47746875 L15.5874063,7.680375 L16.1076563,6.73415625 L15.1306563,6.27459375 L16.1076875,5.81503125 L15.5874063,4.8688125 L16.6483125,5.07175 L16.7827812,4 L17.52175,4.78828125 L18.26075,4 Z"/>
  </g>
</svg>

<svg id="vector" xmlns="http://www.w3.org/2000/svg" width="32" height="16" viewBox="0 0 32 16"><path fill="#00AFCA" fill-rule="evenodd" d="M0 0h32v16H0z" id="path_0"/><path fill="#FEC50C" fill-rule="evenodd" d="M1 1h2v14H1z" id="path_1"/><path fill="#FEC50C" d="M22.044 7.753c0 0.583-0.474 1.062-1.045 1.124l-0.124 0.006h0.038c0 0.625-0.506 1.13-1.13 1.13 0 0.584-0.441 1.063-1.008 1.125l-0.123 0.006h-2.26c-0.625 0-1.131-0.506-1.131-1.13-0.583 0-1.063-0.441-1.124-1.007L14.13 8.883h0.038c-0.583 0-1.095-0.44-1.16-1.007L13 7.753h1.762c0.528 0.984 1.566 1.652 2.76 1.652 1.194 0 2.232-0.668 2.76-1.651l1.762-0.001zM18.26 4l0.134 1.072 1.061-0.203-0.52 0.946 0.977 0.46-0.977 0.46 0.52 0.945-1.06-0.202-0.135 1.071-0.74-0.788-0.738 0.788-0.135-1.071-1.06 0.202 0.52-0.946-0.977-0.46 0.977-0.459-0.52-0.946 1.06 0.203L16.783 4l0.739 0.788L18.26 4z" id="path_2"/></svg>
